X: 36104
T: Schottiche
R: barndance
M: 4/4
K: Gmajor
d|d2 ba g2 B2|d2 ed c2 A2|A2 ed c2 A2|A2 ed B2 G2|
g2 ba g2 B2|d2 ed c2 A2|A2 ed c2 A2|G2 f2 g2||
aA (3GGG E2 G2|B2 (3AAA e2 f2|f2 (3eee B2 ^c2|e2 (3ddd ^c2 d2|
A2 (3GGG E2 G2|B2 (3AAA e2 f2|f2 (3eee B2 ^c2|d2 f2 d2||

